img/header/header-speak.svg

<svg width="32" height="32" viewBox="0 0 32 32" fill="none" xmlns="http://www.w3.org/2000/svg">
<path d="M21.273 0.629542C15.3935 -0.264628 9.86944 3.55953 8.68378 9.34188C8.47284 10.3752 8.1554 11.2117 7.71588 11.8988C7.67682 11.9608 7.64166 12.0258 7.61139 12.0927L5.48132 16.8329C5.27911 17.2837 5.31134 17.8042 5.56726 18.2262C5.8241 18.649 6.27142 18.9176 6.76465 18.946L9.19165 19.0837V21.7597C9.19165 23.087 10.2709 24.1662 11.5972 24.1662H12.9694V27.3658C12.9694 28.194 13.6414 28.8659 14.4695 28.8659H24.5175C25.3457 28.8659 26.0176 28.194 26.0176 27.3658C26.0176 24.7542 26.842 20.7928 28.682 17.8277C28.683 17.8267 28.683 17.8257 28.6839 17.8247C30.3677 15.3694 30.9781 12.3764 30.4009 9.38876C30.4009 9.38827 30.4009 9.38827 30.4009 9.38827C29.5239 4.84871 25.8555 1.32882 21.273 0.629542ZM26.1847 16.1639C26.1603 16.1991 26.1378 16.2357 26.1163 16.2728C24.4824 18.9167 23.3514 22.5391 23.0798 25.8656H15.9697V23.5714C15.9697 22.2451 14.8905 21.1659 13.5632 21.1659H12.1919V18.5221C12.1919 17.2475 11.1948 16.1927 9.92217 16.12L9.11156 16.0741L10.305 13.418C10.9145 12.437 11.3462 11.2991 11.6235 9.94398C12.4879 5.72871 16.5352 2.93934 20.8198 3.59565C24.0995 4.09571 26.8273 6.71223 27.4553 9.95716C27.8812 12.1649 27.4299 14.3693 26.1847 16.1639ZM4.58765 23.4015C4.58765 26.102 6.78516 28.2995 9.48566 28.2995C10.3138 28.2995 10.9858 27.6275 10.9858 26.7993C10.9858 25.9711 10.3138 25.2992 9.48566 25.2992C8.43964 25.2992 7.58795 24.4475 7.58795 23.4015C7.58795 22.5733 6.91601 21.9013 6.08783 21.9013C5.25958 21.9013 4.58765 22.5733 4.58765 23.4015Z" fill="#F1BF5A"/>
<path d="M2.88714 23.2305C2.05895 23.2305 1.38696 23.9025 1.38696 24.7306C1.38696 28.4634 4.42346 31.4999 8.15527 31.4999C8.98352 31.4999 9.65545 30.828 9.65545 29.9998C9.65545 29.1716 8.98351 28.4996 8.15527 28.4996C6.07794 28.4996 4.38733 26.809 4.38733 24.7307C4.38732 23.9025 3.71538 23.2305 2.88714 23.2305Z" fill="#F1BF5A"/>
</svg>

<svg width="32" height="32" fill="none" xmlns="http://www.w3.org/2000/svg"><path d="M21.273.63c-5.88-.895-11.404 2.93-12.59 8.712-.21 1.033-.528 1.87-.967 2.557-.04.062-.074.127-.105.194l-2.13 4.74a1.501 1.501 0 001.284 2.113l2.427.138v2.676a2.409 2.409 0 002.405 2.406h1.372v3.2a1.5 1.5 0 001.5 1.5h10.048a1.5 1.5 0 001.5-1.5c0-2.612.825-6.573 2.665-9.538l.002-.003c1.684-2.456 2.294-5.449 1.717-8.436-.877-4.54-4.546-8.06-9.128-8.76zm4.912 15.534a1.591 1.591 0 00-.069.109c-1.634 2.644-2.765 6.266-3.036 9.593h-7.11V23.57a2.409 2.409 0 00-2.407-2.405h-1.371v-2.644c0-1.274-.997-2.33-2.27-2.402l-.81-.046 1.193-2.656c.61-.981 1.041-2.119 1.319-3.474.864-4.215 4.911-7.005 9.196-6.348 3.28.5 6.007 3.116 6.635 6.361.426 2.208-.025 4.412-1.27 6.207zM4.588 23.4a4.903 4.903 0 004.898 4.898 1.5 1.5 0 000-3A1.9 1.9 0 017.588 23.4a1.5 1.5 0 00-3 0z" fill="#F1BF5A"/><path d="M2.887 23.23a1.5 1.5 0 00-1.5 1.5 6.777 6.777 0 006.768 6.77 1.5 1.5 0 000-3 3.773 3.773 0 01-3.768-3.77 1.5 1.5 0 00-1.5-1.5z" fill="#F1BF5A"/></svg>
